packages/bezier-icons/icons/fast-rewind-filled.svg

<svg width="24" height="24" viewBox="0 0 24 24" fill="none" xmlns="http://www.w3.org/2000/svg">
<path fill-rule="evenodd" clip-rule="evenodd" d="M11.9988 13.0336L20.833 18.9187C21.3314 19.2507 21.9988 18.8934 21.9988 18.2945V5.70561C21.9988 5.1067 21.3314 4.74938 20.833 5.08143L11.9988 10.9665V5.70561C11.9988 5.1067 11.3314 4.74938 10.833 5.08143L1.38433 11.3759C0.938751 11.6727 0.938747 12.3274 1.38433 12.6242L10.833 18.9187C11.3314 19.2507 11.9988 18.8934 11.9988 18.2945V13.0336Z" fill="#313234"/>
</svg>

<svg xmlns="http://www.w3.org/2000/svg" width="24" height="24" fill="none" viewBox="0 0 24 24"><path fill="#313234" fill-rule="evenodd" d="m11.999 13.034 8.834 5.885a.75.75 0 0 0 1.166-.625V5.707a.75.75 0 0 0-1.166-.625l-8.834 5.885v-5.26a.75.75 0 0 0-1.166-.625l-9.449 6.295a.75.75 0 0 0 0 1.248l9.449 6.295a.75.75 0 0 0 1.166-.625z" clip-rule="evenodd"/></svg>
